packages/swarm-icons/src/icons/line/Notif Unread.svg

<svg xmlns="http://www.w3.org/2000/svg" width="24" height="24" viewBox="0 0 24 24">
  <path fill="#757575" d="M18.4782486,10.9662802 C18.6490164,10.9885254 18.8231682,11 19,11 C19.1629671,11 19.323658,10.9902542 19.4815216,10.9713137 C19.4937779,11.1461726 19.5,11.3224784 19.5,11.5 L19.5,15.5 C19.5,15.8905243 19.6094757,16 20,16 C20.8284271,16 21.5,16.6715729 21.5,17.5 L21.5,18.5 C21.5,19.3284271 20.8284271,20 20,20 L4,20 C3.17157288,20 2.5,19.3284271 2.5,18.5 L2.5,17.5 C2.5,16.6715729 3.17157288,16 4,16 C4.39052429,16 4.5,15.8905243 4.5,15.5 L4.5,11.5 C4.5,8.28670282 6.53862552,5.47172536 9.50106119,4.42644981 C9.53996966,3.07975681 10.6438895,2 12,2 C13.3561105,2 14.4600303,3.07975681 14.4989388,4.42644981 C14.8778068,4.56013084 15.2415649,4.72275717 15.5878812,4.91146017 C15.4140344,5.1948742 15.2745079,5.50161186 15.1750871,5.82588773 C14.7632261,5.59523188 14.3222061,5.40744576 13.8573752,5.26910531 L13.5,5.16274525 L13.5,4.5 C13.5,3.67157288 12.8284271,3 12,3 C11.1715729,3 10.5,3.67157288 10.5,4.5 L10.5,5.16274525 L10.1426248,5.26910531 C7.40980302,6.08243285 5.5,8.60483389 5.5,11.5 L5.5,15.5 C5.5,16.442809 4.94280904,17 4,17 C3.72385763,17 3.5,17.2238576 3.5,17.5 L3.5,18.5 C3.5,18.7761424 3.72385763,19 4,19 L20,19 C20.2761424,19 20.5,18.7761424 20.5,18.5 L20.5,17.5 C20.5,17.2238576 20.2761424,17 20,17 C19.057191,17 18.5,16.442809 18.5,15.5 L18.5,11.5 C18.5,11.3205553 18.4926633,11.1425427 18.4782486,10.9662802 Z M19,10 C17.3431458,10 16,8.65685425 16,7 C16,5.34314575 17.3431458,4 19,4 C20.6568542,4 22,5.34314575 22,7 C22,8.65685425 20.6568542,10 19,10 Z M9.5,21 L14.5,21 C14.7761424,21 15,21.2238576 15,21.5 C15,21.7761424 14.7761424,22 14.5,22 L9.5,22 C9.22385763,22 9,21.7761424 9,21.5 C9,21.2238576 9.22385763,21 9.5,21 Z"/>
</svg>

<svg xmlns="http://www.w3.org/2000/svg" width="24" height="24"><path fill="#757575" d="M18.478 10.966a4.038 4.038 0 001.004.005c.012.175.018.351.018.529v4c0 .39.11.5.5.5a1.5 1.5 0 011.5 1.5v1A1.5 1.5 0 0120 20H4a1.5 1.5 0 01-1.5-1.5v-1A1.5 1.5 0 014 16c.39 0 .5-.11.5-.5v-4a7.503 7.503 0 015.001-7.074 2.5 2.5 0 014.998 0 7.47 7.47 0 011.089.485 3.98 3.98 0 00-.413.915 6.476 6.476 0 00-1.318-.557l-.357-.106V4.5a1.5 1.5 0 00-3 0v.663l-.357.106A6.503 6.503 0 005.5 11.5v4c0 .943-.557 1.5-1.5 1.5a.5.5 0 00-.5.5v1a.5.5 0 00.5.5h16a.5.5 0 00.5-.5v-1a.5.5 0 00-.5-.5c-.943 0-1.5-.557-1.5-1.5v-4c0-.18-.007-.357-.022-.534zM19 10a3 3 0 110-6 3 3 0 010 6zM9.5 21h5a.5.5 0 110 1h-5a.5.5 0 110-1z"/></svg>
